X: 3291
T: Miss Margrett Brown's Favourite
C: by Nath. Gow
%R: jig
B: Niel Gow & Sons "A Third Collection of Strathspey Reels, etc." v.3 p.29 #1 (top 2 staves continued from p.28)
Z: 2022 John Chambers <jc:trillian.mit.edu>
%%slurgraces 1
%%graceslurs 1
M: 6/8
L: 1/8
Q: "Slowish and Distinctly"
K: G
% - - - - - - - - - -
V: 1 staves=2
g |\
dBG TG>AB | E2E TE2c | AFD DEF | G2G TG2g || dBG TB>cd | E2E TE2c | AFD DEF | TG3 G2 :|
g/a/ |\
bgb afd | efg {fga}g>fe | dBg dBG | AFD D2g/a/ || bgb afd | efg {a}gfe | (fa).f (ge).^c | d2d Tde=f ||
!p!(ec).e (dB).d | (ca).c (Bg).B | (Ac)e dBG | FAF DEF || !f!TG>AB EFG | ABc def | (gd).B (cA).F | TG3 [G2G,2] |]
% - - - - - - - - - -
% Voice 2 preserves the staff layout in the book.
V: 2 clef=bass middle=d
z | G3 B3 | c3-c2A | d3 D3 | GBd g3 || G3 g3 | c3-c2A | d3 D3 | GBd g2 :|
z | g3 d3 | c3 c'3 | b3 g3 | d3 D3 || G3 d3 | ^c3 A3 | d3 A3 | d3-d2 b ||
!p!c'2a b2g | f2d g2G | c3 B2G | d3 D3 || !f!G3 c3 | A3 d3 | B2e c2d | GBd G2 |]
